X:1
T:Psalm 150
T:Alice Tegnér (1864-1943)
T:Psalm 150
T:©PA Aglert Edition may be freely distributed, duplicated, performed and recorded
T:©PA Aglert Edition may be freely distributed, duplicated, performed and recorded
C:Alice Tegnér (1864-1943)
Z:©PA Aglert
Z:Edition may be freely distributed, duplicated, performed and recorded
%%score [ 1 2 3 4 ]
L:1/8
Q:1/4=100
M:4/4
K:Db
V:1 treble nm="S"
V:2 treble nm="A"
V:3 treble-8 nm="T"
V:4 bass nm="B"
V:1
"^Risoluto"!f! d6- dd | A3 B c2 (de) | f4!p! d3 d | (d2 c)!<(!d!<)! e2!>(! A2!>)! | A2 z2!p! F3 F | %5
w: Lo- * ven|Gud i him- mels- *|höjd! Var- je|själ, * till Ho- nom|böjd, var- je|
 B3 B!<(! B2!<)!!>(! A2!>)! | A4!>(! A4!>)! | =G z A!<(!B!<)! d3 c |!>(! (B4!>)! A2) z2 || %9
w: stläm- ma, glad och|from, lo-|ve I Hans hel- ge-|dom. *|
!f! d6- dd | A3 B!<(! c2 (de)!<)! | f4 d3 d | d2 cd e3 A | A2 z2!p! F3 F | B3 B B2!<(! A2!<)! | %15
w: Allt * vad|Her- rans hand har *|gjort allt är|un- * der- bart och|stort. Lo- va|Her- ren Je- ho-|
!>(! A4!>)! A2!<(! A2!<)! | !courtesy!_G2 Bd!f! f3 e | d8- | d2!ff! A2 d3 d | !fermata!d8 |] %20
w: va, pri- sa|Gud! Hal- * le- lu-|ja.|* Ha- le- lu-|ja!|
V:2
 z4!f! A2- AA | G3 G G2 G2 | (F2 A2)!p! F3 F | =G3!<(! G!<)! _G2!>(! G2!>)! | F2 z2!p! D3 D | %5
w: Lo- * ven|Gud i him- mels-|höjd! * Var- je|själ, till Ho- nom|böjd, var- je|
 F3 E!<(! E2!<)!!>(! (FE)!>)! | (E2 D2)!>(! D4!>)! | D z E!<(!F!<)! A3 A |!>(! (=G4!>)! A2) z2 || %9
w: stläm- ma, glad och *|from, * lo-|ve I Hans hel- ge-|dom. *|
 z4!f! A2- AA | G3 G!<(! G2 G2!<)! | (F2 A2) F3 F | =G3 G _G3 G | F2 z2!p! D3 D | %14
w: Allt * vad|Her- rans hand har|gjort * allt är|un- der- bart och|stort. Lo- va|
 F3 E E2!<(! (FE)!<)! |!>(! (E2!>)! D2) D2!<(! D2!<)! | D2 G2!f! G2 G2 | F2 F2 G2 (EG) | %18
w: Her- ren Je- ho- *|va, * pri- sa|Gud! Hal- le- lu-|ja. Ha- le- lu- *|
 F2!ff! F2 G3 B | !fermata!F8 |] %20
w: ja! Ha- le- lu-|ja!|
V:3
 z2!f! f4- ff | e3 e e2 (dc) | d4!p! d2 d2 | d3!<(! d!<)! d2!>(! c2!>)! | d4!p! d3 d | %5
w: Lo- * ven|Gud i him- mels- *|höjd! Var- je|själ, till Ho- nom|böjd, var- je|
 d3 d!<(! c2!<)!!>(! c2!>)! | A4!>(! A4!>)! | B z c!<(!d!<)! f3 e |!>(! (d4!>)! c2) z2 || %9
w: stläm- ma, glad och|from, lo-|ve I Hans hel- ge-|dom. *|
 z2!f! f4- ff | e3 e!<(! e2 (dc)!<)! | d4 d2 d2 | e3 d d2 c2 | (d2 c2)!p! B2 A2 | %14
w: Allt * vad|Her- rans hand har *|gjort allt är|un- der- bart och|stort. * Lo- va|
 d3 d c2!<(! c2!<)! |!>(! A4!>)! A2!<(! A2!<)! | B2 (dB)!f! d2 c2 | d2 A2 B2 (GB) | %18
w: Her- ren Je- ho-|va, pri- sa|Gud! Hal- * le- lu-|ja. Ha- le- lu- *|
 A2!ff! d2 d3 d | !fermata!d8 |] %20
w: ja! Ha- le- lu-|ja!|
V:4
 z4!f! z2 DD | C3 B, A,2 A,2 | (D,2 F,2)!p! A,2 D2 | B,3!<(! B,!<)! A,2!>(! A,2!>)! | %4
w: Lo- ven|Gud i him- mels-|höjd! * Var- je|själ, till Ho- nom|
 (D2 C2)!p! B,2 A,2 | =G,3 G,!<(! _G,2!<)!!>(! G,2!>)! | F,4!>(! _F,4!>)! | %7
w: böjd, * var- je|stläm- ma, glad och|from, lo-|
 E, z E,!<(!E,!<)! E,2 E,2 |!>(! (E,4!>)! A,2) z2 || z4!f! z2 DD | C3 B,!<(! A,2 A,2!<)! | %11
w: ve I Hans hel- ge-|dom. *|Allt vad|Her- rans hand har|
 (D,2 F,2) A,2 D2 | B,3 B, A,2 A,2 | D,4!p! B,2 A,2 | =G,3 G, _G,2!<(! G,2!<)! | %15
w: gjort * allt är|un- der- bart och|stort. Lo- va|Her- ren Je- ho-|
!>(! F,4!>)! _F,2!<(! F,2!<)! | E,2 E,2!f! A,2 A,2 | D,8- | D,2!ff! D,2 B,3 G, | %19
w: va, pri- sa|Gud! Hal- le- lu-|ja.|* Ha- le- lu-|
 !fermata![D,A,]8 |] %20
w: ja!|

